X:381
T:Wise Maid
Z: id:dc-reel-353
M:C
L:1/8
K:D Major
F3G FEDE|FAAB AFED|d2eg fdec|[1 dBAF BEE2:|[2 dBAG FDD2|]!
dBAG FDFA|dfaf gfeg|fAdf eAce|dfed cAA2|!
BDGB ADFA|dfaf gfed|cdec dBAG|F2EG FDD2:|!

